data/styles/clear/style-night/symbols/bank-m.svg

<svg height="24" viewBox="0 0 24 24" width="24"><g fill="none" fill-rule="evenodd"><circle cx="12" cy="12" fill="#fff" opacity=".4" r="12"/><circle cx="12" cy="12" fill="#3d3d36" r="11"/><path d="m6 7.76923077 6-2.76923077 6 2.76923077v.92307692h-.9230769v6.92307691h.9230769v1.3846154h-12v-1.3846154h.92307692v-6.92307691h-.92307692zm8.3076923 4.92417043c0-1.0202645-1.0379487-1.846974-2.3097436-1.846974-.4225641 0-.771282-.2755698-.771282-.6167515s.3446154-.61675153.771282-.61675153c.4266667 0 .7712821.27885043.7712821.61675153h1.5384615c0-.80046475-.6441026-1.47626696-1.5384615-1.73215323v-.7282917h-1.5384616v.7282917c-.8943589.25588627-1.53846151.93168848-1.53846151 1.73215323 0 1.0202645 1.03794871 1.846974 2.30974361 1.846974.4266666 0 .771282.2755698.771282.6167515s-.3446154.6167516-.771282.6167516c-.4266667 0-.7712821-.2788505-.7712821-.6167516h-1.53846151c0 .8004648.64410261 1.476267 1.53846151 1.7321533v.7282917h1.5384616v-.7282917c.8943589-.2558863 1.5384615-.9316885 1.5384615-1.7321533z" fill="#fff" opacity=".6"/></g></svg>

<svg width="24" height="24" viewBox="0 0 24 24">
  <g fill="none" fill-rule="evenodd">
    <circle cx="12" cy="12" r="12" fill="#FFF" opacity=".4"/>
    <circle cx="12" cy="12" r="11" fill="#3D3C36"/>
    <path fill="#FFF" d="M6,7.76923077 L12,5 L18,7.76923077 L18,8.69230769 L17.0769231,8.69230769 L17.0769231,15.6153846 L18,15.6153846 L18,17 L6,17 L6,15.6153846 L6.92307692,15.6153846 L6.92307692,8.69230769 L6,8.69230769 L6,7.76923077 Z M14.3076923,12.6934012 C14.3076923,11.6731367 13.2697436,10.8464272 11.9979487,10.8464272 C11.5753846,10.8464272 11.2266667,10.5708574 11.2266667,10.2296757 C11.2266667,9.888494 11.5712821,9.61292417 11.9979487,9.61292417 C12.4246154,9.61292417 12.7692308,9.8917746 12.7692308,10.2296757 L14.3076923,10.2296757 C14.3076923,9.42921095 13.6635897,8.75340874 12.7692308,8.49752247 L12.7692308,7.76923077 L11.2307692,7.76923077 L11.2307692,8.49752247 C10.3364103,8.75340874 9.69230769,9.42921095 9.69230769,10.2296757 C9.69230769,11.2499402 10.7302564,12.0766497 12.0020513,12.0766497 C12.4287179,12.0766497 12.7733333,12.3522195 12.7733333,12.6934012 C12.7733333,13.0345829 12.4287179,13.3101528 12.0020513,13.3101528 C11.5753846,13.3101528 11.2307692,13.0313023 11.2307692,12.6934012 L9.69230769,12.6934012 C9.69230769,13.493866 10.3364103,14.1696682 11.2307692,14.4255545 L11.2307692,15.1538462 L12.7692308,15.1538462 L12.7692308,14.4255545 C13.6635897,14.1696682 14.3076923,13.493866 14.3076923,12.6934012 Z" opacity=".6"/>
  </g>
</svg>
